X:363
T:Flatbush Waltz
Z:Jack Campin, http://www.campin.me.uk/
F:Jack Campin's Nine-Note Tunebook
% last edit 03-02-2013
C:Andy Statman arr. Jack Campin
N:second part has a lot of octave shifts
N:needs half-holing for the E flat
M:3/4
L:1/8
Q:1/4=150
K:DMin
        A3  d AG   |F2 D2 D2 |A3  d  AF|G3  \
BAG    |DE FG AF/A/|GD G2 G2 |F3  G _EF|D3
DFG    |A3  d AG   |F2 D2 D2 |A3  d  AF|G3  \
c (3BAG|FG AB cA   |GD G2 G2 |F3  G _EF|D6||
        F4    ED   |EA AE A^c|d2 c3   B|A6 |\
        B2 A2 G2   |A2 D2 E2 |F3  E  FG|E6 |
        F4    ED   |EA AE A^c|d2 c3   B|A6 |\
        B2 A2 G2   |A2 D2 G2 |F3  G _EF|D6|]

